svg/icons/src/icon-emc.svg

<?xml version="1.0" encoding="UTF-8"?>
<svg width="32px" height="32px" viewBox="0 0 32 32" version="1.1" xmlns="http://www.w3.org/2000/svg" xmlns:xlink="http://www.w3.org/1999/xlink">
    <!-- Generator: Sketch 52.5 (67469) - http://www.bohemiancoding.com/sketch -->
    <title>icon-emc</title>
    <desc>Created with Sketch.</desc>
    <defs>
        <path d="M10,4 C8.8954305,4 8,4.8954305 8,6 L8,26 C8,27.1045695 8.8954305,28 10,28 L22,28 C23.1045695,28 24,27.1045695 24,26 L24,6 C24,4.8954305 23.1045695,4 22,4 L10,4 Z M18,8 L18,7 C18,6.44771525 18.4477153,6 19,6 C19.5522847,6 20,6.44771525 20,7 L20,8 L21,8 C21.5522847,8 22,8.44771525 22,9 C22,9.55228475 21.5522847,10 21,10 L20,10 L20,11 C20,11.5522847 19.5522847,12 19,12 C18.4477153,12 18,11.5522847 18,11 L18,10 L17,10 C16.4477153,10 16,9.55228475 16,9 C16,8.44771525 16.4477153,8 17,8 L18,8 Z M10,2 L22,2 C24.209139,2 26,3.790861 26,6 L26,26 C26,28.209139 24.209139,30 22,30 L10,30 C7.790861,30 6,28.209139 6,26 L6,6 C6,3.790861 7.790861,2 10,2 Z M11,22 C10.4477153,22 10,21.5522847 10,21 C10,20.4477153 10.4477153,20 11,20 L21,20 C21.5522847,20 22,20.4477153 22,21 C22,21.5522847 21.5522847,22 21,22 L11,22 Z M11,18 C10.4477153,18 10,17.5522847 10,17 C10,16.4477153 10.4477153,16 11,16 L21,16 C21.5522847,16 22,16.4477153 22,17 C22,17.5522847 21.5522847,18 21,18 L11,18 Z M11,26 C10.4477153,26 10,25.5522847 10,25 C10,24.4477153 10.4477153,24 11,24 L21,24 C21.5522847,24 22,24.4477153 22,25 C22,25.5522847 21.5522847,26 21,26 L11,26 Z" id="path-1"></path>
    </defs>
    <g id="icon-emc" stroke="none" stroke-width="1" fill="none" fill-rule="evenodd">
        <mask id="mask-2" fill="white">
            <use xlink:href="#path-1"></use>
        </mask>
        <use id="Mask" fill="#2333FF" fill-rule="nonzero" xlink:href="#path-1"></use>
    </g>
</svg>

<svg height="32" width="32" xmlns="http://www.w3.org/2000/svg"><path d="M10 4a2 2 0 0 0-2 2v20a2 2 0 0 0 2 2h12a2 2 0 0 0 2-2V6a2 2 0 0 0-2-2zm8 4V7a1 1 0 0 1 2 0v1h1a1 1 0 0 1 0 2h-1v1a1 1 0 0 1-2 0v-1h-1a1 1 0 0 1 0-2zm-8-6h12a4 4 0 0 1 4 4v20a4 4 0 0 1-4 4H10a4 4 0 0 1-4-4V6a4 4 0 0 1 4-4zm1 20a1 1 0 0 1 0-2h10a1 1 0 0 1 0 2zm0-4a1 1 0 0 1 0-2h10a1 1 0 0 1 0 2zm0 8a1 1 0 0 1 0-2h10a1 1 0 0 1 0 2z" fill="#2333ff"/></svg>
